X:38
T:Banish Misfortune
M:6/8
L:1/8
R:jig
K:G
e|fed cAG|A2d cAG|F2D DED|F2F GFG|A3 cAG|AGA cde|fed cAG|Add d2e:|
|:f2d d^cd|f2g agf|e2c cAc|e2f gfe|f2g agf|e2f gfe|fed cAG|Add d2e:|
|:f2g e2f|d2e c2d|ABA GAG|F3 FED|c3 cAG|AGA cde|fed cAG|Add d3:|
